scalable/mimes/text-x-readme.svg

<?xml version="1.0" encoding="UTF-8" standalone="no"?>
<!-- Created with Inkscape (http://www.inkscape.org/) -->

<svg
   xmlns:dc="http://purl.org/dc/elements/1.1/"
   xmlns:cc="http://creativecommons.org/ns#"
   xmlns:rdf="http://www.w3.org/1999/02/22-rdf-syntax-ns#"
   xmlns:svg="http://www.w3.org/2000/svg"
   xmlns="http://www.w3.org/2000/svg"
   xmlns:xlink="http://www.w3.org/1999/xlink"
   xmlns:sodipodi="http://sodipodi.sourceforge.net/DTD/sodipodi-0.dtd"
   xmlns:inkscape="http://www.inkscape.org/namespaces/inkscape"
   id="svg2677"
   width="48"
   height="48"
   version="1.0"
   sodipodi:docname="gnome-mime-text-x-readme.svg"
   inkscape:version="0.92.3 (2405546, 2018-03-11)">
  <metadata
     id="metadata71">
    <rdf:RDF>
      <cc:Work
         rdf:about="">
        <dc:format>image/svg+xml</dc:format>
        <dc:type
           rdf:resource="http://purl.org/dc/dcmitype/StillImage" />
        <dc:title></dc:title>
      </cc:Work>
    </rdf:RDF>
  </metadata>
  <sodipodi:namedview
     pagecolor="#ffffff"
     bordercolor="#666666"
     borderopacity="1"
     objecttolerance="10"
     gridtolerance="10"
     guidetolerance="10"
     inkscape:pageopacity="0"
     inkscape:pageshadow="2"
     inkscape:window-width="1366"
     inkscape:window-height="717"
     id="namedview69"
     showgrid="false"
     inkscape:zoom="3.7417734"
     inkscape:cx="24"
     inkscape:cy="24"
     inkscape:window-x="0"
     inkscape:window-y="25"
     inkscape:window-maximized="1"
     inkscape:current-layer="svg2677"
     showguides="true"
     inkscape:guide-bbox="true"
     inkscape:snap-global="true"
     inkscape:snap-smooth-nodes="true" />
  <defs
     id="defs2679">
    <linearGradient
       inkscape:collect="always"
       id="linearGradient938">
      <stop
         style="stop-color:#0e0000;stop-opacity:1"
         offset="0"
         id="stop934" />
      <stop
         style="stop-color:#000000;stop-opacity:0"
         offset="1"
         id="stop936" />
    </linearGradient>
    <linearGradient
       id="linearGradient2642"
       x1="302.86"
       x2="302.86"
       y1="366.65"
       y2="609.51"
       gradientTransform="matrix(.067325 0 0 .0147 -.34114 37.04)"
       gradientUnits="userSpaceOnUse">
      <stop
         id="stop5050"
         style="stop-opacity:0"
         offset="0" />
      <stop
         id="stop5056"
         offset=".5" />
      <stop
         id="stop5052"
         style="stop-opacity:0"
         offset="1" />
    </linearGradient>
    <radialGradient
       id="radialGradient2639"
       cx="605.71"
       cy="486.65"
       r="117.14"
       gradientTransform="matrix(-.02304 0 0 .0147 21.623 37.04)"
       gradientUnits="userSpaceOnUse"
       xlink:href="#linearGradient5060" />
    <linearGradient
       id="linearGradient5060">
      <stop
         id="stop5062"
         offset="0" />
      <stop
         id="stop5064"
         style="stop-opacity:0"
         offset="1" />
    </linearGradient>
    <radialGradient
       id="radialGradient2636"
       cx="605.71"
       cy="486.65"
       r="117.14"
       gradientTransform="matrix(.02304 0 0 .0147 26.361 37.04)"
       gradientUnits="userSpaceOnUse"
       xlink:href="#linearGradient5060" />
    <linearGradient
       id="linearGradient2633"
       x1="-51.786"
       x2="-51.786"
       y1="50.786"
       y2="2.9062"
       gradientTransform="matrix(.8075 0 0 .89483 59.41 -2.9806)"
       gradientUnits="userSpaceOnUse">
      <stop
         id="stop3106"
         style="stop-color:#aaa"
         offset="0" />
      <stop
         id="stop3108"
         style="stop-color:#c8c8c8"
         offset="1" />
    </linearGradient>
    <linearGradient
       id="linearGradient2631"
       x1="25.132"
       x2="25.132"
       y1=".98521"
       y2="47.013"
       gradientTransform="matrix(1 0 0 .95617 -1.0065e-7 -1.9149)"
       gradientUnits="userSpaceOnUse">
      <stop
         id="stop3602"
         style="stop-color:#f4f4f4"
         offset="0" />
      <stop
         id="stop3604"
         style="stop-color:#dbdbdb"
         offset="1" />
    </linearGradient>
    <radialGradient
       id="radialGradient2628"
       cx="102"
       cy="112.3"
       r="139.56"
       gradientTransform="matrix(.3617 0 0 -.39078 .85106 47.517)"
       gradientUnits="userSpaceOnUse">
      <stop
         id="stop41"
         style="stop-color:#b7b8b9"
         offset="0" />
      <stop
         id="stop47"
         style="stop-color:#ececec"
         offset=".18851" />
      <stop
         id="stop49"
         style="stop-color:#fafafa;stop-opacity:0"
         offset=".25718" />
      <stop
         id="stop51"
         style="stop-color:#fff;stop-opacity:0"
         offset=".30111" />
      <stop
         id="stop53"
         style="stop-color:#fafafa;stop-opacity:0"
         offset=".5313" />
      <stop
         id="stop55"
         style="stop-color:#ebecec;stop-opacity:0"
         offset=".8449" />
      <stop
         id="stop57"
         style="stop-color:#e1e2e3;stop-opacity:0"
         offset="1" />
    </radialGradient>
    <linearGradient
       id="linearGradient2625"
       x1="24"
       x2="24"
       y1="2"
       y2="46.017"
       gradientTransform="matrix(1 0 0 .97778 0 -.96667)"
       gradientUnits="userSpaceOnUse">
      <stop
         id="stop3213"
         style="stop-color:#fff"
         offset="0" />
      <stop
         id="stop3215"
         style="stop-color:#fff;stop-opacity:0"
         offset="1" />
    </linearGradient>
    <filter
       id="filter3212"
       x="-.14846"
       y="-.16434"
       width="1.2969"
       height="1.3287"
       color-interpolation-filters="sRGB">
      <feGaussianBlur
         id="feGaussianBlur3214"
         stdDeviation="0.77391625" />
    </filter>
    <linearGradient
       id="linearGradient2621"
       x1="32.892"
       x2="36.358"
       y1="8.059"
       y2="5.4565"
       gradientTransform="matrix(.9977 0 0 1.0407 .1638 -1.1058)"
       gradientUnits="userSpaceOnUse">
      <stop
         id="stop8591"
         style="stop-color:#fefefe"
         offset="0" />
      <stop
         id="stop8593"
         style="stop-color:#cbcbcb"
         offset="1" />
    </linearGradient>
    <radialGradient
       id="radialGradient2675"
       cx="22.902"
       cy="45.867"
       r="7.9059"
       gradientTransform="matrix(.69765 0 0 .29961 12.507 18.89)"
       gradientUnits="userSpaceOnUse">
      <stop
         id="stop3197"
         offset="0" />
      <stop
         id="stop3199"
         style="stop-opacity:0"
         offset="1" />
    </radialGradient>
    <radialGradient
       id="radialGradient2672"
       cx="22.902"
       cy="45.867"
       r="7.9059"
       gradientTransform="matrix(.75875 0 0 .32584 -.80598 19.479)"
       gradientUnits="userSpaceOnUse">
      <stop
         id="stop3203"
         offset="0" />
      <stop
         id="stop3205"
         style="stop-opacity:0"
         offset="1" />
    </radialGradient>
    <radialGradient
       id="radialGradient2668"
       cx="17.059"
       cy="41.059"
       r="5.7385"
       fx="14.638"
       fy="38.175"
       gradientTransform="matrix(.66498 0 -.10886 .63739 9.9382 5.2626)"
       gradientUnits="userSpaceOnUse">
      <stop
         id="stop3877"
         style="stop-color:#aaa"
         offset="0" />
      <stop
         id="stop3879"
         style="stop-color:#4d4d4d"
         offset="1" />
    </radialGradient>
    <radialGradient
       id="radialGradient2665"
       cx="17.059"
       cy="41.059"
       r="5.7385"
       fx="14.109"
       fy="38.981"
       gradientTransform="matrix(.66333 0 -.10859 .6358 21.997 3.4975)"
       gradientUnits="userSpaceOnUse">
      <stop
         id="stop3871"
         style="stop-color:#ffffff;stop-opacity:1"
         offset="0" />
      <stop
         id="stop3873"
         style="stop-color:#999999;stop-opacity:1"
         offset="1" />
    </radialGradient>
    <linearGradient
       id="linearGradient2662"
       x1="28.739"
       x2="25.4"
       y1="144.12"
       y2="119.86"
       gradientTransform="matrix(.22147 0 0 .22311 14.032 -16.079)"
       gradientUnits="userSpaceOnUse">
      <stop
         id="stop3239"
         style="stop-color:#fff"
         offset="0" />
      <stop
         id="stop3241"
         style="stop-color:#fff;stop-opacity:.37931"
         offset="1" />
    </linearGradient>
    <linearGradient
       id="linearGradient2659"
       x1="28.739"
       x2="26.257"
       y1="144.12"
       y2="125.39"
       gradientTransform="matrix(.44563 0 0 .22311 20.716 -17.657)"
       gradientUnits="userSpaceOnUse">
      <stop
         id="stop3245"
         style="stop-color:#fff"
         offset="0" />
      <stop
         id="stop3247"
         style="stop-color:#fff;stop-opacity:.37931"
         offset="1" />
    </linearGradient>
    <linearGradient
       id="linearGradient2444-734-39"
       x1="28.534"
       x2="16.886999"
       y1="24.24"
       y2="13.664"
       gradientTransform="matrix(1.0502,0,0,0.99322,-1.7066442,-3.0606452)"
       gradientUnits="userSpaceOnUse">
      <stop
         id="stop3388"
         style="stop-color:#dbd2a2"
         offset="0" />
      <stop
         id="stop3390"
         style="stop-color:#fff;stop-opacity:0"
         offset="1" />
    </linearGradient>
    <linearGradient
       id="linearGradient6119"
       x1="22.104"
       x2="22.104"
       y1="40.124001"
       y2="10.035"
       gradientTransform="matrix(0.66556,0,0,1.4408,4.5203,-11.849)"
       gradientUnits="userSpaceOnUse"
       xlink:href="#linearGradient5031" />
    <linearGradient
       id="linearGradient5031">
      <stop
         id="stop5033"
         style="stop-color:#a3a3a3"
         offset="0" />
      <stop
         id="stop5035"
         style="stop-color:#bababa"
         offset="1" />
    </linearGradient>
    <linearGradient
       id="linearGradient6090"
       x1="22.104"
       x2="22.104"
       y1="40.124001"
       y2="10.035"
       gradientTransform="matrix(1.0228,0,0,1.4408,-0.69869,-6.5277)"
       gradientUnits="userSpaceOnUse"
       xlink:href="#linearGradient5031" />
    <linearGradient
       id="linearGradient5988"
       x1="22.104"
       x2="22.104"
       y1="40.124001"
       y2="10.035"
       gradientTransform="matrix(0.33421,0,0,1.4207,9.679,-1.238)"
       gradientUnits="userSpaceOnUse"
       xlink:href="#linearGradient5031" />
    <linearGradient
       id="linearGradient5984"
       x1="22.104"
       x2="22.104"
       y1="40.124001"
       y2="10.035"
       gradientTransform="matrix(0.48763,0,0,1.4407,7.7773,0.40824)"
       gradientUnits="userSpaceOnUse"
       xlink:href="#linearGradient5031" />
    <linearGradient
       id="linearGradient5980"
       x1="22.104"
       x2="22.104"
       y1="40.124001"
       y2="10.035"
       gradientTransform="matrix(0.3695,0,0,1.4205,9.0116,2.7803)"
       gradientUnits="userSpaceOnUse"
       xlink:href="#linearGradient5031" />
    <linearGradient
       id="linearGradient6073"
       x1="22.104"
       x2="22.104"
       y1="40.124001"
       y2="10.035"
       gradientTransform="matrix(0.38146,0,0,1.4009,8.4789,5.2584)"
       gradientUnits="userSpaceOnUse"
       xlink:href="#linearGradient5031" />
    <linearGradient
       id="linearGradient6143"
       x1="22.104"
       x2="22.104"
       y1="40.124001"
       y2="10.035"
       gradientTransform="matrix(0.40636,0,0,1.4408,8.3144,-5.594)"
       gradientUnits="userSpaceOnUse"
       xlink:href="#linearGradient5031" />
    <linearGradient
       id="linearGradient6065"
       x1="22.104"
       x2="22.104"
       y1="40.124001"
       y2="10.035"
       gradientTransform="matrix(1.7828,0,0,1.4408,-37.939,-28.441)"
       gradientUnits="userSpaceOnUse"
       xlink:href="#linearGradient5031" />
    <linearGradient
       inkscape:collect="always"
       xlink:href="#radialGradient2665"
       id="linearGradient922"
       x1="18.103516"
       y1="21.712891"
       x2="28.953089"
       y2="22.000669"
       gradientUnits="userSpaceOnUse" />
    <linearGradient
       inkscape:collect="always"
       xlink:href="#linearGradient938"
       id="linearGradient960"
       gradientUnits="userSpaceOnUse"
       x1="12.105615"
       y1="10.354055"
       x2="52.354084"
       y2="42.023529" />
  </defs>
  <g
     id="g980">
    <path
       id="path9"
       d="m 40.885888,17.418642 -7.829991,30.54988 H 14.94405 L 7.113386,17.418642 13.012774,0.0309861 h 21.973437 z"
       style="fill:#2c5aa0"
       inkscape:connector-curvature="0" />
    <path
       sodipodi:nodetypes="cccccccccccc"
       inkscape:connector-curvature="0"
       id="path932"
       d="m 33.039062,47.96875 h 0.01758 L 40.03125,20.753906 28.30015,9.046429 l -3.377982,3.897884 1.579277,4.419599 -1.343242,0.895854 -3.472656,1.345703 -3.166016,2.882812 4.136719,4.326172 -2.365419,8.3352 z"
       style="fill:url(#linearGradient960);fill-opacity:1;stroke:none;stroke-width:1px;stroke-linecap:butt;stroke-linejoin:miter;stroke-opacity:1;opacity:0.55" />
    <path
       id="path11"
       d="m 18.277955,43.816802 -3.335301,4.1525 h 18.113001 l -3.3353,-4.1525 z"
       style="fill:#3771c8"
       inkscape:connector-curvature="0" />
    <g
       id="g17"
       style="fill:#214478;stroke-width:0.12053"
       transform="translate(-4.568e-5,-1.979e-4)">
      <path
         id="path15"
         d="m 29.720697,43.81628 3.335267,4.152486 7.830696,-30.549597 -4.440822,0.160819 z M 7.1138205,17.419402 14.94292,47.968999 18.278186,43.816513 11.553046,17.580431 Z M 13.012829,0.0308959 16.098611,4.1833822 h 15.801742 l 3.085782,-4.15248629 z"
         inkscape:connector-curvature="0" />
    </g>
    <g
       id="g21"
       style="fill:#162d50"
       transform="translate(-4.568e-5,-1.979e-4)">
      <path
         id="path19"
         d="M 7.1134314,17.41884 13.01282,0.031184 16.09882,4.1838667 11.553057,17.57988 Z m 29.3325876,0.16104 -4.545763,-13.3960133 3.086,-4.1526827 5.899677,17.387656 z"
         inkscape:connector-curvature="0" />
    </g>
    <path
       id="path893"
       d="M 26.847656 8.5039062 C 24.443856 8.3763363 23.186503 12.250247 25.470703 13.310547 C 27.323903 14.070567 29.341372 12.170684 28.888672 10.271484 C 28.748172 9.2825254 27.861356 8.4706062 26.847656 8.5039062 z M 25.816406 17.033203 C 25.429264 17.001395 24.977968 17.139267 24.486328 17.509766 C 22.130328 18.535868 20.160516 20.210591 18.103516 21.712891 C 18.361666 22.41466 18.652504 22.984831 19.271484 22.207031 C 20.038835 21.750484 22.608763 19.748714 22.351562 21.708984 C 21.528302 25.336284 20.525966 28.925853 19.759766 32.564453 C 18.958586 34.556653 20.778235 36.3581 22.677734 35.0625 C 24.696834 34.23016 26.434085 32.874559 28.208984 31.630859 C 27.966804 31.036927 27.805919 30.184217 27.136719 30.960938 C 26.258069 31.359747 24.339022 33.23823 23.982422 31.6875 C 24.720482 27.7598 26.088791 23.978031 26.962891 20.082031 C 27.566191 18.738405 26.977832 17.128623 25.816406 17.033203 z "
       style="fill:url(#linearGradient922);fill-opacity:1;stroke:none;stroke-width:1.09278476px;stroke-linecap:butt;stroke-linejoin:miter;stroke-opacity:1" />
  </g>
</svg>

<svg xmlns="http://www.w3.org/2000/svg" xmlns:xlink="http://www.w3.org/1999/xlink" width="48" height="48" version="1"><defs><linearGradient id="d"><stop offset="0" stop-color="#0e0000"/><stop offset="1" stop-opacity="0"/></linearGradient><linearGradient id="a"><stop offset="0"/><stop offset="1" stop-opacity="0"/></linearGradient><radialGradient id="c" cx="17.06" cy="41.06" r="5.74" fx="14.11" fy="38.98" gradientTransform="matrix(.66333 0 -.10859 .6358 22 3.5)" gradientUnits="userSpaceOnUse"><stop offset="0" stop-color="#fff"/><stop offset="1" stop-color="#999"/></radialGradient><linearGradient id="b"><stop offset="0" stop-color="#a3a3a3"/><stop offset="1" stop-color="#bababa"/></linearGradient><linearGradient xlink:href="#c" id="f" x1="18.1" y1="21.71" x2="28.95" y2="22" gradientUnits="userSpaceOnUse"/><linearGradient xlink:href="#d" id="e" gradientUnits="userSpaceOnUse" x1="12.11" y1="10.35" x2="52.35" y2="42.02"/></defs><path d="M40.89 17.42l-7.83 30.55H14.94L7.11 17.42 13.01.03H35z" fill="#2c5aa0"/><path d="M33.04 47.97h.02l6.97-27.22L28.3 9.05l-3.38 3.9 1.58 4.41-1.34.9-3.47 1.35-3.17 2.88 4.14 4.32-2.37 8.34z" fill="url(#e)" opacity=".55"/><path d="M18.28 43.82l-3.34 4.15h18.12l-3.34-4.15z" fill="#3771c8"/><path d="M29.72 43.82l3.34 4.15 7.83-30.55-4.44.16zm-22.6-26.4l7.82 30.55 3.34-4.15-6.73-26.24zM13.01.03l3.08 4.15h15.8L34.99.03z" fill="#214478" stroke-width=".12"/><path d="M7.11 17.42L13.01.03l3.09 4.15-4.55 13.4zm29.34.16L31.9 4.18 34.99.03l5.9 17.39z" fill="#162d50"/><path d="M26.85 8.5c-2.4-.12-3.66 3.75-1.38 4.81 1.85.76 3.87-1.14 3.42-3.04a2.06 2.06 0 0 0-2.04-1.77zm-1.03 8.53c-.4-.03-.84.1-1.33.48-2.36 1.03-4.33 2.7-6.39 4.2.26.7.55 1.27 1.17.5.77-.46 3.34-2.46 3.08-.5-.82 3.63-1.82 7.22-2.59 10.85-.8 2 1.02 3.8 2.92 2.5 2.02-.83 3.75-2.19 5.53-3.43-.24-.6-.4-1.45-1.07-.67-.88.4-2.8 2.28-3.16.73.74-3.93 2.1-7.71 2.98-11.6.6-1.35.02-2.96-1.14-3.06z" fill="url(#f)"/></svg>
